X:1
T:Twist Ye Twine Ye Even So
C:Skinner – Scottish Violinist
L:1/8
K:FMinor
| CFFA Gc c2 | BcAF FG ^EC 
| CFFA Gc c2 | Bc AB G{B}A F2 ||
| ef de cd Bc | AB GA FG ^Ec 
| CFAF (Gd).c.B | c{e}d BA G{B}A F2 || 
